Catalina-dark/actions/16/compass.svg

<?xml version="1.0" encoding="UTF-8" standalone="no"?>
<svg
   xmlns:dc="http://purl.org/dc/elements/1.1/"
   xmlns:cc="http://creativecommons.org/ns#"
   xmlns:rdf="http://www.w3.org/1999/02/22-rdf-syntax-ns#"
   xmlns:svg="http://www.w3.org/2000/svg"
   xmlns="http://www.w3.org/2000/svg"
   xmlns:sodipodi="http://sodipodi.sourceforge.net/DTD/sodipodi-0.dtd"
   xmlns:inkscape="http://www.inkscape.org/namespaces/inkscape"
   width="16"
   height="16"
   viewBox="0 0 16 16"
   version="1.1"
   id="svg7"
   sodipodi:docname="compass.svg"
   inkscape:version="0.92.4 5da689c313, 2019-01-14">
  <metadata
     id="metadata11">
    <rdf:RDF>
      <cc:Work
         rdf:about="">
        <dc:format>image/svg+xml</dc:format>
        <dc:type
           rdf:resource="http://purl.org/dc/dcmitype/StillImage" />
      </cc:Work>
    </rdf:RDF>
  </metadata>
  <sodipodi:namedview
     pagecolor="#ffffff"
     bordercolor="#666666"
     borderopacity="1"
     objecttolerance="10"
     gridtolerance="10"
     guidetolerance="10"
     inkscape:pageopacity="0"
     inkscape:pageshadow="2"
     inkscape:window-width="640"
     inkscape:window-height="480"
     id="namedview9"
     showgrid="false"
     inkscape:zoom="14.75"
     inkscape:cx="6.8135593"
     inkscape:cy="8"
     inkscape:window-x="0"
     inkscape:window-y="26"
     inkscape:window-maximized="0"
     inkscape:current-layer="svg7" />
  <defs
     id="defs3">
    <style
       id="current-color-scheme"
       type="text/css">
   .ColorScheme-Text { color:#5c616c; } .ColorScheme-Highlight { color:#5294e2; }
  </style>
  </defs>
  <path
     style="fill:#f1f6f8;fill-opacity:0.8509804"
     class="ColorScheme-Text"
     d="M 8 1 C 4.134 1 1 4.134 1 8 C 1 11.866 4.134 15 8 15 C 11.866 15 15 11.866 15 8 C 15 4.134 11.866 1 8 1 z M 8 3 C 10.7614 3 13 5.2386 13 8 C 13 10.7614 10.7614 13 8 13 C 5.2386 13 3 10.7614 3 8 C 3 5.2386 5.2386 3 8 3 z M 11.5 4.5 L 8 5.6660156 C 6.7783 5.6660156 5.6660156 6.7782 5.6660156 8 L 4.5 11.5 L 8 10.333984 C 9.2217 10.333984 10.333984 9.2217 10.333984 8 L 11.5 4.5 z M 8 6.8339844 C 8.61088 6.8339844 9.1660156 7.3891 9.1660156 8 C 9.1659956 8.6108 8.61083 9.1660156 8 9.1660156 C 7.38915 9.1660156 6.8339844 8.6108 6.8339844 8 C 6.8339544 7.3891 7.38913 6.8339844 8 6.8339844 z"
     id="path5" />
</svg>

<svg width="16" height="16" version="1.1" viewBox="0 0 16 16" xmlns="http://www.w3.org/2000/svg">
<defs>
<style id="current-color-scheme" type="text/css">.ColorScheme-Text { color:#5c616c; } .ColorScheme-Highlight { color:#5294e2; }</style>
</defs>
<path class="ColorScheme-Text" d="m8 1c-3.866 0-7 3.134-7 7s3.134 7 7 7 7-3.134 7-7-3.134-7-7-7zm0 2c2.7614 0 5 2.2386 5 5s-2.2386 5-5 5-5-2.2386-5-5 2.2386-5 5-5zm3.5 1.5-3.5 1.166c-1.2217 0-2.334 1.1122-2.334 2.334l-1.166 3.5 3.5-1.166c1.2217 0 2.334-1.1123 2.334-2.334l1.166-3.5zm-3.5 2.334c0.61088 0 1.166 0.55512 1.166 1.166-2e-5 0.6108-0.55519 1.166-1.166 1.166-0.61085 0-1.166-0.55522-1.166-1.166-3e-5 -0.6109 0.55515-1.166 1.166-1.166z" fill="#dedede" fill-opacity=".85098"/>
</svg>
